!!!OTL: Schneider-Verschwörung (3-44), S. 131
!!!id: P1016
**kern
*clefG2
*k[f#]
*a:
{4d
=1
4d
4a
4a
=2
8a
16a
16a
4a
4b
=3
4a
4g
4g
=4
4g
4g}
{4g
=5
2g
4cc
=6
4cc
4cc
4cc
=7
2.cc
=8
2cc}
=9
{8.cc
16cc
=10
4.b
8b
4b
=11
4a
4a
8.a
16b
=12
2a}
=13
{4d
=14
4d
4a
4a
=15
4a
4a
4b
=16
2a
4g
=17
2g}
=18
{4g
=19
2g
4cc
=20
4cc
4cc
4cc
=21
4b
4b
4a
=22
2b}
=23
{4b
=24
2g
4g
=25
2f#
4e
=26
2.d}
=27
{4.g
8a
8b
8cc
=28
2.ee
=29
2ee}
=30
{4ee
=31
2cc
4cc
=32
4b
4a
8.a
16b
=33
2a}
==
*-
!!!minrhy: 16
!!!meters: 3/4 ]  ZZ[8
!!!cut: Schneider-Verschwörung (3-44), S. 131
!!!reg: Lothringen
!!!trd: PINCK, Louis: Verklingende Weisen, Bd3, Metz 1933
!!!rhy1: X__  X__X__X__  X_XXX__X__  X__X__X__  X__X__
!!!rhy2: X__  X___X__  X__X__X__  X___.  X___
!!!key: P1016  16  A 3/4 ]  ZZ[8
!!!mod: HEPTATONIK DORISCH]  AMBITUS[9
!!!kad: -7b3b1-7b2-451
!!!akz: -411-7b_-7b3b3b3b_211_-411-7b_-7b3b22_-7b-6-4_-7b55_3b21_
!!!fot: 'a__b__c__av_d__e__bs"es"
!!!for: 'a__b__c__d__e__f__g__h__
!!!fok: '^a_/__\__^a_/__\__/__\__
!! PHRAS[VORWIEGEND AUFTAKTIG]
!!!fkt: Berufslied
!! LOTH VKL
!! PR[35] 2K[0] 2G[14] 3K[2] 3G[5] 4A[2] 4Ü[0] 5A[2] 6K[0] 6G[0]
!! 7K[0] 7G[0] 8A[0] MEHR[0] SI[26] ABS[43] SR[14] SP[12]
!! ST[14] 2k[7] 2g[28] 3k[0] 3g[5] 4d[0] 4ü[0] 5d[0] 6k[0] 6g[0]
!! 7k[0] 7g[0] 8d[0] mehr[0] si[40] dm[-14] sr[35] sp[5]
!! 1F[23] 2F[68] 3F[5] 4F[0] LF[0] 2P[5] 3P[0] 4P[0] TRI[0] DF[4] AB[44]
!! TF[0] U3K[0] U3[0] U4[0] U4Ü[0] U5[9] U6K[0] U6[5] U7K[0] U7[7]
!! N1[25] N2K[0] N2[9] N3K[0] N3[18] N4[7] N4Ü[0] N5[14] N6K[0] N6[7]
!!!n7k: 0] N7[0] O1[0] O2K[0] O2[0] O3K[0] O3[0] HÖ[0
